images_sukapura_svg/cmd/sc_paragraphdialog.svg

<svg viewBox="0 0 16 16" xmlns="http://www.w3.org/2000/svg" xmlns:xlink="http://www.w3.org/1999/xlink"><linearGradient id="a" gradientUnits="userSpaceOnUse" x1="-17.694915" x2="-17.61017" y1="17.220339" y2="1.288136"><stop offset="0" stop-color="#0040dd"/><stop offset="1" stop-color="#0a84ff"/></linearGradient><linearGradient id="b" gradientUnits="userSpaceOnUse" x1="10" x2="10" y1="16" y2="-2"><stop offset="0" stop-color="#f7f7f7"/><stop offset=".22222222" stop-color="#fff"/><stop offset=".83333331" stop-color="#fff"/><stop offset="1" stop-color="#f7f7f7"/></linearGradient><linearGradient id="c" gradientTransform="matrix(1 0 0 .53846154 -6 5.307692)" gradientUnits="userSpaceOnUse" x1="12" x2="12" y1="18" y2="5"><stop offset="0" stop-color="#cfcfcf"/><stop offset=".15476191" stop-color="#e7e7e7"/><stop offset=".15476191" stop-color="#fff"/><stop offset=".5" stop-color="#f3f3f3"/><stop offset=".85714287" stop-color="#f9f9f9"/><stop offset=".85714287" stop-color="#fcfcfc"/><stop offset="1" stop-color="#fff"/></linearGradient><linearGradient id="d" gradientTransform="matrix(1 0 0 .39999999 -6 6.7)" gradientUnits="userSpaceOnUse" x1="12" x2="12" y1="12" y2="18.250002"><stop offset="0" stop-color="#f8f8f8"/><stop offset="1" stop-color="#fff"/></linearGradient>




     /&amp;amp;amp;gt;
 <path d="m6 0c-2.209139 0-4 1.790861-4 4s1.790861 4 4 4v8h2v-14h2v4h2v-4l3-1v-1h-3-2-2z" fill="url(#a)"/><g transform="translate(8)"><path d="m2 8h6v8h-6z" fill="url(#b)"/><path d="m2 7h6v9h-6z" fill="#626262" stroke-width=".774597"/><path d="m3 8h4v7h-4z" fill="url(#c)" stroke-width=".733799"/><path d="m4 9h2v2.5h-2z" fill="#dadada" stroke-width=".912871"/><path d="m4 11.5h2v2.5h-2z" fill="url(#d)" stroke-width=".632456"/></g></svg>

<?xml version="1.0" encoding="UTF-8" standalone="no"?>
<svg
   xmlns:dc="http://purl.org/dc/elements/1.1/"
   xmlns:cc="http://creativecommons.org/ns#"
   xmlns:rdf="http://www.w3.org/1999/02/22-rdf-syntax-ns#"
   xmlns:svg="http://www.w3.org/2000/svg"
   xmlns="http://www.w3.org/2000/svg"
   xmlns:xlink="http://www.w3.org/1999/xlink"
   xmlns:sodipodi="http://sodipodi.sourceforge.net/DTD/sodipodi-0.dtd"
   xmlns:inkscape="http://www.inkscape.org/namespaces/inkscape"
   viewBox="0 0 16 16"
   version="1.1"
   id="svg4"
   sodipodi:docname="sc_paragraphdialog.svg"
   inkscape:version="0.92.3 (2405546, 2018-03-11)"
   inkscape:export-filename="/home/rizmut/Documents/Rizmut/Github/libreoffice-style-sukapura/images_sukapura/cmd/sc_paragraphdialog.png"
   inkscape:export-xdpi="96"
   inkscape:export-ydpi="96"><metadata
   id="metadata10">
  <rdf:RDF>
    <cc:Work
       rdf:about="">
      <dc:format>image/svg+xml</dc:format>
      <dc:type
         rdf:resource="http://purl.org/dc/dcmitype/StillImage" />
    </cc:Work>
  </rdf:RDF>
</metadata>
<defs
   id="defs8">
  <linearGradient
     gradientTransform="translate(-29.694915,1.220339)"
     id="a"
     gradientUnits="userSpaceOnUse"
     x1="14"
     x2="13.79661"
     y1="22"
     y2="2.1355929">
    <stop
       offset="0"
       stop-color="#0040dd"
       id="stop2" />
    <stop
       offset="1"
       stop-color="#0a84ff"
       id="stop4" />
  </linearGradient>
  <linearGradient
     inkscape:collect="always"
     xlink:href="#a"
     id="linearGradient835"
     x1="12"
     y1="16"
     x2="12.084745"
     y2="0.06779661"
     gradientUnits="userSpaceOnUse" />
  <linearGradient
     gradientTransform="translate(-1,-5)"
     id="a-2"
     gradientUnits="userSpaceOnUse"
     x1="11"
     x2="11"
     y1="21"
     y2="3">
    <stop
       offset="0"
       stop-color="#f7f7f7"
       id="stop2-2" />
    <stop
       offset=".22222222"
       stop-color="#fff"
       id="stop4-9" />
    <stop
       offset=".83333331"
       stop-color="#fff"
       id="stop6" />
    <stop
       offset="1"
       stop-color="#f7f7f7"
       id="stop8" />
  </linearGradient>
  <linearGradient
     gradientTransform="matrix(1,0,0,0.53846154,-6,5.3076923)"
     id="b"
     gradientUnits="userSpaceOnUse"
     x1="12"
     x2="12"
     y1="18"
     y2="5">
    <stop
       offset="0"
       stop-color="#cfcfcf"
       id="stop11" />
    <stop
       offset="0.15476191"
       stop-color="#e7e7e7"
       id="stop13" />
    <stop
       offset="0.15476191"
       stop-color="#fff"
       id="stop15" />
    <stop
       offset=".5"
       stop-color="#f3f3f3"
       id="stop17" />
    <stop
       offset="0.85714287"
       stop-color="#f9f9f9"
       id="stop19" />
    <stop
       offset="0.85714287"
       stop-color="#fcfcfc"
       id="stop21" />
    <stop
       offset="1"
       stop-color="#fff"
       id="stop23" />
  </linearGradient>
  <linearGradient
     gradientTransform="matrix(1,0,0,0.39999999,-6,6.6999997)"
     id="c"
     gradientUnits="userSpaceOnUse"
     x1="12"
     x2="12"
     y1="12"
     y2="18.250002">
    <stop
       offset="0"
       stop-color="#f8f8f8"
       id="stop26" />
    <stop
       offset="1"
       stop-color="#fff"
       id="stop28" />
  </linearGradient>
</defs>
<sodipodi:namedview
   pagecolor="#ffffff"
   bordercolor="#666666"
   borderopacity="1"
   objecttolerance="10"
   gridtolerance="10"
   guidetolerance="10"
   inkscape:pageopacity="0"
   inkscape:pageshadow="2"
   inkscape:window-width="1366"
   inkscape:window-height="685"
   id="namedview6"
   showgrid="true"
   inkscape:zoom="14.75"
   inkscape:cx="8.6056056"
   inkscape:cy="2.7400713"
   inkscape:window-x="0"
   inkscape:window-y="0"
   inkscape:window-maximized="1"
   inkscape:current-layer="svg4">
  <inkscape:grid
     type="xygrid"
     id="grid869" />
</sodipodi:namedview>




     /&amp;amp;gt;
 <path
   style="fill-opacity:1;fill:url(#linearGradient835)"
   d="M 6 0 C 3.790861 0 2 1.790861 2 4 C 2 6.209139 3.790861 8 6 8 L 6 16 L 8 16 L 8 2 L 10 2 L 10 6 L 12 6 L 12 2 L 15 1 L 15 0 L 12 0 L 10 0 L 8 0 L 6 0 z "
   id="path2" />
<g
   id="g937"
   transform="translate(8)">
  <path
     id="path31"
     d="m 2,8 h 6 v 8 H 2 Z"
     style="fill:url(#a-2)"
     inkscape:connector-curvature="0"
     sodipodi:nodetypes="ccccc" />
  <path
     id="path35"
     d="m 2,7 h 6 v 9 H 2 Z"
     style="fill:#626262;stroke-width:0.77459669"
     inkscape:connector-curvature="0"
     sodipodi:nodetypes="ccccc" />
  <path
     id="path37"
     d="m 3,8 h 4 v 7 H 3 Z"
     style="fill:url(#b);stroke-width:0.7337994"
     inkscape:connector-curvature="0"
     sodipodi:nodetypes="ccccc" />
  <path
     id="path39"
     d="m 4,9 h 2 v 2.5 H 4 Z"
     style="fill:#dadada;stroke-width:0.91287094"
     inkscape:connector-curvature="0"
     sodipodi:nodetypes="ccccc" />
  <path
     id="path41"
     d="M 4,11.5 H 6 V 14 H 4 Z"
     style="fill:url(#c);stroke-width:0.63245553"
     inkscape:connector-curvature="0"
     sodipodi:nodetypes="ccccc" />
  <g
     id="g51"
     style="fill:#a2a2a7"
     transform="translate(-2,-6)" />
</g>
</svg>
